X:36
T:Garde Sus
C:Traditioneel
O:Achtel (Vlaanderen)
B:"Achtel Zalig Oord", Vlaams Dansarchief
Z:Bert Van Vreckem <http://flanders.blackmill.net/music/>
M:2/4
L:1/8
N:Voorspel |:AABB:| ad lib.
K:F
P:Voorspel
C2| FFFF|FGAB|cA cA|F2 zC ||
P:A
!segno!|: FFFF|FGAB|cc BA|G4|cccc|cc c2|c>B AG |[1 A2 FC :|[2 F2 z2 ||
P:B
|: c>B AB|cc cA|BBBB|dc B2|c>B AB|cc cA|c>B AG |[1 F2 z2 :|[2 F z!D.S.!C |]
